(.../.eagle/pcb-gcode/pcb-gcode.ulp)
(Copyright 2005 - 2012 by John Johnson)
(See readme.txt for licensing terms.)
(This file generated from the board:)
(.../Lasercutter/Treiber/treiber.brd)
(Current profile is .../pcb-gcode/profiles/imodela.pp  )
(This file generated 25.05.13 16:00)
(Settings from pcb-machine.h)
(  Tool Size)
(0.20 )
(Z Axis Settings)
(  High     Up        Down     Drill)
(10.00 	2.00 	-0.19 	-2.10 )
(spindle on time = 6.0000)
(milling depth = -0.2540)
(text depth = -0.1270)
(tool change at 0.00 0.00 10.00 )
(feed rate xy = F140.00 )
(feed rate z  = F35.00 )
(Settings from pcb-defaults.h)
(isolate min = 0.0020)
(isolate max = 0.2000)
(isolate step = 0.2000)
(Generated top outlines, top drill, )
(Unit of measure: mm)
(Metric Mode)
G21
(Absolute Coordinates)
G90
G00 X0.00 Y0.00 
M03
G04 P 6
G00 Z2.00 
G00 X20.39 Y11.64 
G01 Z-0.19 F35.00 
G01 X20.44 Y11.55 F140.00 
G01 X20.52 Y11.48 
G01 X20.61 Y11.43 
G01 X20.71 Y11.40 
G01 X22.98 Y11.40 
G01 X23.20 Y11.31 
G01 X23.37 Y11.14 
G01 X23.46 Y10.91 
G01 X23.46 Y8.17 
G01 X23.49 Y8.07 
G01 X23.54 Y7.98 
G01 X23.62 Y7.90 
G01 X23.71 Y7.85 
G01 X23.81 Y7.82 
G01 X25.48 Y7.82 
G01 X25.60 Y7.70 
G01 X25.60 Y5.00 
G01 X25.48 Y4.88 
G01 X20.24 Y4.88 
G01 X20.12 Y5.00 
G01 X20.12 Y6.97 
G01 X20.09 Y7.08 
G01 X20.04 Y7.17 
G01 X19.96 Y7.24 
G01 X19.87 Y7.30 
G01 X19.77 Y7.32 
G01 X19.66 Y7.32 
G01 X19.56 Y7.30 
G01 X19.47 Y7.24 
G01 X19.39 Y7.17 
G01 X19.33 Y7.11 
G01 X19.28 Y7.02 
G01 X19.25 Y6.91 
G01 X19.25 Y5.00 
G01 X19.13 Y4.88 
G01 X13.89 Y4.88 
G01 X13.77 Y5.00 
G01 X13.77 Y7.70 
G01 X13.89 Y7.82 
G01 X17.13 Y7.82 
G01 X17.24 Y7.85 
G01 X17.29 Y7.88 
G01 X17.33 Y7.90 
G01 X17.40 Y7.98 
G01 X17.49 Y8.06 
G01 X17.68 Y8.14 
G01 X18.24 Y8.14 
G01 X18.34 Y8.17 
G01 X18.43 Y8.22 
G01 X18.51 Y8.30 
G01 X18.56 Y8.39 
G01 X18.59 Y8.49 
G01 X18.59 Y8.67 
G01 X18.56 Y8.78 
G01 X18.51 Y8.87 
G01 X18.43 Y8.94 
G01 X18.34 Y8.99 
G01 X18.24 Y9.02 
G01 X17.93 Y9.02 
G01 X17.81 Y9.14 
G01 X17.81 Y9.91 
G01 X17.81 Y9.91 
G01 X17.86 Y10.00 
G01 X17.87 Y10.04 
G01 X17.89 Y10.11 
G01 X17.89 Y10.21 
G01 X17.86 Y10.32 
G01 X17.83 Y10.37 
G01 X17.81 Y10.41 
G01 X17.81 Y10.41 
G01 X17.81 Y11.18 
G01 X17.83 Y11.20 
G01 X17.86 Y11.23 
G01 X17.88 Y11.27 
G01 X17.91 Y11.32 
G01 X17.93 Y11.37 
G01 X17.94 Y11.42 
G01 X17.94 Y11.48 
G01 X17.94 Y11.53 
G01 X17.92 Y11.59 
G01 X17.91 Y11.63 
G01 X17.89 Y11.66 
G01 X20.38 Y11.66 
G01 X20.39 Y11.64 
G00 Z2.00 
G00 X25.42 Y7.72 
G01 Z-0.19 F35.00 
G01 X23.36 Y7.72 F140.00 
G01 X23.36 Y10.86 
G01 X23.33 Y10.99 
G01 X23.26 Y11.10 
G01 X23.17 Y11.20 
G01 X23.05 Y11.26 
G01 X22.93 Y11.30 
G01 X19.04 Y11.30 
G01 X18.92 Y11.26 
G01 X18.80 Y11.20 
G01 X17.99 Y11.20 
G01 X17.95 Y11.18 
G01 X17.92 Y11.15 
G01 X17.91 Y11.12 
G01 X17.91 Y10.47 
G01 X17.92 Y10.44 
G01 X17.95 Y10.41 
G01 X17.99 Y10.39 
G01 X18.80 Y10.39 
G01 X18.92 Y10.33 
G01 X19.04 Y10.29 
G01 X22.36 Y10.29 
G01 X22.36 Y7.72 
G01 X20.30 Y7.72 
G01 X20.26 Y7.71 
G01 X20.23 Y7.68 
G01 X20.22 Y7.64 
G01 X20.22 Y5.06 
G01 X20.23 Y5.02 
G01 X20.26 Y4.99 
G01 X20.30 Y4.98 
G01 X25.42 Y4.98 
G01 X25.46 Y4.99 
G01 X25.49 Y5.02 
G01 X25.50 Y5.06 
G01 X25.50 Y7.64 
G01 X25.49 Y7.68 
G01 X25.46 Y7.71 
G01 X25.42 Y7.72 
G00 Z2.00 
G00 X17.99 Y9.12 
G01 Z-0.19 F35.00 
G01 X18.69 Y9.12 F140.00 
G01 X18.69 Y8.04 
G01 X17.72 Y8.04 
G01 X17.62 Y8.01 
G01 X17.52 Y7.96 
G01 X17.44 Y7.88 
G01 X17.39 Y7.78 
G01 X17.37 Y7.72 
G01 X13.95 Y7.72 
G01 X13.91 Y7.71 
G01 X13.88 Y7.68 
G01 X13.87 Y7.64 
G01 X13.87 Y5.06 
G01 X13.88 Y5.02 
G01 X13.91 Y4.99 
G01 X13.95 Y4.98 
G01 X19.07 Y4.98 
G01 X19.11 Y4.99 
G01 X19.14 Y5.02 
G01 X19.15 Y5.06 
G01 X19.15 Y7.20 
G01 X19.17 Y7.20 
G01 X19.27 Y7.23 
G01 X19.37 Y7.28 
G01 X19.45 Y7.36 
G01 X19.50 Y7.46 
G01 X19.53 Y7.56 
G01 X19.53 Y9.12 
G01 X20.23 Y9.12 
G01 X20.27 Y9.14 
G01 X20.30 Y9.17 
G01 X20.31 Y9.20 
G01 X20.31 Y9.85 
G01 X20.30 Y9.88 
G01 X20.27 Y9.91 
G01 X20.23 Y9.93 
G01 X19.23 Y9.93 
G01 X19.17 Y9.94 
G01 X19.05 Y9.94 
G01 X18.99 Y9.93 
G01 X17.99 Y9.93 
G01 X17.95 Y9.91 
G01 X17.92 Y9.88 
G01 X17.91 Y9.85 
G01 X17.91 Y9.20 
G01 X17.92 Y9.17 
G01 X17.95 Y9.14 
G01 X17.99 Y9.12 
G00 Z2.00 
G00 X25.76 Y17.61 
G01 Z-0.19 F35.00 
G01 X25.77 Y17.65 F140.00 
G01 X25.79 Y17.68 
G01 X25.82 Y17.71 
G01 X25.85 Y17.73 
G01 X25.89 Y17.74 
G01 X26.01 Y17.74 
G01 X26.01 Y17.69 
G01 X25.89 Y17.69 
G01 X25.85 Y17.68 
G01 X25.82 Y17.65 
G01 X25.81 Y17.61 
G01 X25.81 Y17.19 
G01 X25.76 Y17.19 
G01 X25.76 Y17.61 
G00 Z2.00 
G00 X24.58 Y14.99 
G01 Z-0.19 F35.00 
G01 X24.59 Y15.03 F140.00 
G01 X24.61 Y15.06 
G01 X24.64 Y15.09 
G01 X24.67 Y15.11 
G01 X24.71 Y15.12 
G01 X25.03 Y15.12 
G01 X25.03 Y15.07 
G01 X24.71 Y15.07 
G01 X24.67 Y15.06 
G01 X24.64 Y15.03 
G01 X24.63 Y14.99 
G01 X24.63 Y14.47 
G01 X24.58 Y14.47 
G01 X24.58 Y14.99 
G00 Z2.00 
G00 X26.48 Y12.95 
G01 Z-0.19 F35.00 
G01 X26.47 Y12.91 F140.00 
G01 X26.45 Y12.88 
G01 X26.42 Y12.85 
G01 X26.39 Y12.83 
G01 X26.35 Y12.82 
G01 X26.03 Y12.82 
G01 X26.03 Y12.87 
G01 X26.35 Y12.87 
G01 X26.39 Y12.88 
G01 X26.42 Y12.91 
G01 X26.43 Y12.95 
G01 X26.43 Y13.47 
G01 X26.48 Y13.47 
G01 X26.48 Y12.95 
G00 Z2.00 
G00 X23.73 Y15.05 
G01 Z-0.19 F35.00 
G01 X23.73 Y12.89 F140.00 
G01 X23.61 Y12.77 
G01 X21.85 Y12.77 
G01 X21.73 Y12.89 
G01 X21.73 Y14.12 
G01 X21.70 Y14.23 
G01 X21.65 Y14.32 
G01 X21.57 Y14.39 
G01 X21.20 Y14.77 
G01 X21.12 Y14.84 
G01 X21.03 Y14.89 
G01 X20.93 Y14.92 
G01 X20.77 Y14.92 
G01 X20.76 Y14.92 
G01 X20.72 Y14.92 
G01 X20.68 Y14.92 
G01 X20.67 Y14.92 
G01 X20.65 Y14.92 
G01 X20.61 Y14.90 
G01 X20.58 Y14.89 
G01 X20.56 Y14.89 
G01 X20.55 Y14.88 
G01 X20.52 Y14.86 
G01 X20.48 Y14.84 
G01 X20.47 Y14.83 
G01 X20.46 Y14.83 
G01 X20.44 Y14.79 
G01 X20.41 Y14.77 
G01 X20.40 Y14.76 
G01 X20.39 Y14.75 
G01 X20.38 Y14.71 
G01 X20.36 Y14.67 
G01 X20.35 Y14.66 
G01 X20.19 Y14.34 
G01 X20.17 Y14.31 
G01 X20.17 Y14.30 
G01 X20.16 Y14.28 
G01 X20.16 Y14.24 
G01 X20.15 Y14.21 
G01 X20.15 Y14.19 
G01 X20.14 Y14.18 
G01 X20.15 Y14.14 
G01 X20.15 Y14.10 
G01 X20.15 Y14.09 
G01 X20.15 Y14.08 
G01 X20.16 Y14.04 
G01 X20.17 Y14.00 
G01 X20.18 Y13.99 
G01 X20.18 Y13.97 
G01 X20.21 Y13.94 
G01 X20.23 Y13.91 
G01 X20.23 Y13.90 
G01 X20.24 Y13.89 
G01 X20.27 Y13.86 
G01 X20.41 Y13.72 
G01 X20.41 Y12.95 
G01 X20.39 Y12.93 
G01 X20.36 Y12.90 
G01 X20.34 Y12.86 
G01 X20.31 Y12.81 
G01 X20.29 Y12.76 
G01 X20.28 Y12.71 
G01 X20.28 Y12.65 
G01 X20.28 Y12.60 
G01 X20.30 Y12.54 
G01 X20.31 Y12.50 
G01 X20.33 Y12.47 
G01 X17.89 Y12.47 
G01 X17.91 Y12.50 
G01 X17.92 Y12.54 
G01 X17.94 Y12.60 
G01 X17.94 Y12.65 
G01 X17.94 Y12.71 
G01 X17.93 Y12.75 
G01 X17.91 Y12.81 
G01 X17.88 Y12.86 
G01 X17.86 Y12.90 
G01 X17.83 Y12.93 
G01 X17.81 Y12.95 
G01 X17.81 Y13.72 
G01 X17.93 Y13.84 
G01 X18.49 Y13.84 
G01 X18.50 Y13.84 
G01 X18.54 Y13.84 
G01 X18.58 Y13.84 
G01 X18.60 Y13.84 
G01 X18.61 Y13.84 
G01 X18.65 Y13.85 
G01 X18.69 Y13.87 
G01 X18.70 Y13.87 
G01 X18.71 Y13.88 
G01 X18.74 Y13.90 
G01 X18.78 Y13.92 
G01 X18.79 Y13.93 
G01 X18.80 Y13.93 
G01 X18.82 Y13.96 
G01 X18.85 Y13.99 
G01 X18.86 Y14.00 
G01 X18.87 Y14.01 
G01 X18.88 Y14.05 
G01 X18.90 Y14.08 
G01 X18.91 Y14.10 
G01 X19.61 Y15.50 
G01 X19.62 Y15.51 
G01 X19.63 Y15.54 
G01 X19.64 Y15.58 
G01 X19.65 Y15.59 
G01 X19.66 Y15.62 
G01 X19.68 Y15.64 
G01 X19.69 Y15.67 
G01 X19.70 Y15.69 
G01 X19.71 Y15.72 
G01 X19.72 Y15.74 
G01 X19.72 Y15.74 
G01 X19.73 Y15.75 
G01 X19.74 Y15.76 
G01 X19.74 Y15.78 
G01 X19.77 Y15.80 
G01 X19.79 Y15.81 
G01 X19.81 Y15.83 
G01 X19.84 Y15.85 
G01 X19.85 Y15.87 
G01 X19.86 Y15.88 
G01 X19.87 Y15.89 
G01 X19.88 Y15.89 
G01 X19.89 Y15.90 
G01 X19.90 Y15.91 
G01 X19.92 Y15.92 
G01 X19.95 Y15.94 
G01 X19.98 Y15.96 
G01 X19.99 Y15.97 
G01 X20.97 Y16.76 
G01 X20.99 Y16.77 
G01 X21.01 Y16.79 
G01 X21.04 Y16.81 
G01 X21.05 Y16.83 
G01 X21.07 Y16.84 
G01 X21.08 Y16.87 
G01 X21.10 Y16.89 
G01 X21.11 Y16.91 
G01 X21.12 Y16.93 
G01 X21.13 Y16.96 
G01 X21.14 Y16.99 
G01 X21.14 Y17.01 
G01 X21.15 Y17.04 
G01 X21.15 Y17.07 
G01 X21.15 Y17.10 
G01 X21.15 Y17.12 
G01 X21.15 Y17.67 
G01 X21.27 Y17.79 
G01 X22.43 Y17.79 
G01 X22.55 Y17.67 
G01 X22.55 Y15.91 
G01 X22.54 Y15.90 
G01 X22.47 Y15.83 
G01 X22.47 Y15.82 
G01 X22.45 Y15.78 
G01 X22.42 Y15.73 
G01 X22.39 Y15.63 
G01 X22.39 Y15.52 
G01 X22.40 Y15.48 
G01 X22.42 Y15.42 
G01 X22.47 Y15.33 
G01 X22.54 Y15.25 
G01 X22.58 Y15.23 
G01 X22.63 Y15.20 
G01 X22.74 Y15.17 
G01 X23.61 Y15.17 
G01 X23.73 Y15.05 
G00 Z2.00 
G00 X23.63 Y12.95 
G01 Z-0.19 F35.00 
G01 X23.63 Y14.99 F140.00 
G01 X23.62 Y15.03 
G01 X23.59 Y15.06 
G01 X23.55 Y15.07 
G01 X22.22 Y15.07 
G01 X21.59 Y15.70 
G01 X21.52 Y15.78 
G01 X21.42 Y15.83 
G01 X21.35 Y15.85 
G01 X21.39 Y15.89 
G01 X22.37 Y15.89 
G01 X22.41 Y15.90 
G01 X22.44 Y15.93 
G01 X22.45 Y15.97 
G01 X22.45 Y17.61 
G01 X22.44 Y17.65 
G01 X22.41 Y17.68 
G01 X22.37 Y17.69 
G01 X21.33 Y17.69 
G01 X21.29 Y17.68 
G01 X21.26 Y17.65 
G01 X21.25 Y17.61 
G01 X21.25 Y16.85 
G01 X19.92 Y15.79 
G01 X19.90 Y15.78 
G01 X19.89 Y15.77 
G01 X19.88 Y15.76 
G01 X19.87 Y15.75 
G01 X19.85 Y15.74 
G01 X19.84 Y15.72 
G01 X19.82 Y15.70 
G01 X19.82 Y15.69 
G01 X19.81 Y15.68 
G01 X19.80 Y15.66 
G01 X19.79 Y15.65 
G01 X19.78 Y15.62 
G01 X19.77 Y15.60 
G01 X19.76 Y15.59 
G01 X18.84 Y13.74 
G01 X17.99 Y13.74 
G01 X17.95 Y13.72 
G01 X17.92 Y13.69 
G01 X17.91 Y13.66 
G01 X17.91 Y13.01 
G01 X17.92 Y12.98 
G01 X17.95 Y12.95 
G01 X17.99 Y12.93 
G01 X18.98 Y12.93 
G01 X19.08 Y12.91 
G01 X19.19 Y12.92 
G01 X19.23 Y12.93 
G01 X20.23 Y12.93 
G01 X20.27 Y12.95 
G01 X20.30 Y12.98 
G01 X20.31 Y13.01 
G01 X20.31 Y13.66 
G01 X20.30 Y13.69 
G01 X20.27 Y13.72 
G01 X20.23 Y13.74 
G01 X19.78 Y13.74 
G01 X20.42 Y15.02 
G01 X21.08 Y15.02 
G01 X21.83 Y14.28 
G01 X21.83 Y12.95 
G01 X21.84 Y12.91 
G01 X21.87 Y12.88 
G01 X21.91 Y12.87 
G01 X23.55 Y12.87 
G01 X23.59 Y12.88 
G01 X23.62 Y12.91 
G01 X23.63 Y12.95 
G00 Z2.00 
G00 X15.35 Y16.23 
G01 Z-0.19 F35.00 
G01 X15.35 Y16.23 F140.00 
G01 X15.30 Y16.21 
G01 X15.25 Y16.20 
G01 X15.21 Y16.17 
G01 X15.16 Y16.15 
G01 X15.12 Y16.11 
G01 X15.08 Y16.07 
G01 X15.06 Y16.03 
G01 X15.03 Y15.98 
G01 X15.02 Y15.93 
G01 X14.60 Y14.40 
G01 X14.59 Y14.34 
G01 X14.58 Y14.29 
G01 X14.58 Y14.24 
G01 X14.58 Y14.19 
G01 X14.59 Y14.14 
G01 X14.60 Y14.09 
G01 X14.63 Y14.04 
G01 X14.66 Y13.99 
G01 X14.69 Y13.96 
G01 X14.73 Y13.92 
G01 X14.78 Y13.89 
G01 X14.82 Y13.87 
G01 X14.87 Y13.85 
G01 X14.92 Y13.84 
G01 X14.98 Y13.84 
G01 X15.03 Y13.84 
G01 X15.09 Y13.84 
G01 X15.21 Y13.72 
G01 X15.21 Y12.95 
G01 X15.21 Y12.95 
G01 X15.16 Y12.86 
G01 X15.15 Y12.82 
G01 X15.13 Y12.75 
G01 X15.13 Y12.65 
G01 X15.16 Y12.54 
G01 X15.19 Y12.49 
G01 X15.21 Y12.45 
G01 X15.21 Y12.45 
G01 X15.21 Y11.68 
G01 X15.21 Y11.68 
G01 X15.19 Y11.64 
G01 X15.16 Y11.59 
G01 X15.13 Y11.48 
G01 X15.13 Y11.38 
G01 X15.15 Y11.31 
G01 X15.16 Y11.27 
G01 X15.21 Y11.18 
G01 X15.21 Y11.18 
G01 X15.21 Y10.41 
G01 X15.19 Y10.39 
G01 X15.16 Y10.36 
G01 X15.14 Y10.32 
G01 X15.11 Y10.27 
G01 X15.09 Y10.22 
G01 X15.08 Y10.17 
G01 X15.08 Y10.11 
G01 X15.08 Y10.06 
G01 X15.10 Y10.00 
G01 X15.11 Y9.96 
G01 X15.13 Y9.93 
G01 X12.66 Y9.93 
G01 X12.66 Y9.94 
G01 X12.65 Y9.97 
G01 X12.63 Y10.05 
G01 X12.61 Y10.09 
G01 X12.58 Y10.14 
G01 X12.50 Y10.21 
G01 X12.47 Y10.23 
G01 X12.41 Y10.26 
G01 X12.31 Y10.29 
G01 X9.22 Y10.29 
G01 X9.18 Y10.29 
G01 X9.17 Y10.29 
G01 X9.15 Y10.29 
G01 X9.12 Y10.28 
G01 X9.08 Y10.27 
G01 X9.06 Y10.27 
G01 X9.05 Y10.26 
G01 X9.02 Y10.24 
G01 X8.98 Y10.23 
G01 X8.97 Y10.22 
G01 X8.96 Y10.21 
G01 X8.93 Y10.18 
G01 X8.90 Y10.16 
G01 X8.89 Y10.15 
G01 X8.88 Y10.14 
G01 X8.86 Y10.10 
G01 X8.84 Y10.07 
G01 X8.84 Y10.06 
G01 X8.83 Y10.05 
G01 X8.82 Y10.01 
G01 X8.81 Y9.97 
G01 X8.81 Y9.96 
G01 X8.80 Y9.94 
G01 X8.80 Y9.90 
G01 X8.80 Y9.86 
G01 X8.80 Y9.85 
G01 X8.80 Y9.84 
G01 X8.82 Y9.80 
G01 X8.88 Y9.45 
G01 X8.88 Y9.44 
G01 X8.89 Y9.40 
G01 X8.90 Y9.36 
G01 X8.91 Y9.35 
G01 X8.91 Y9.34 
G01 X8.93 Y9.31 
G01 X8.95 Y9.27 
G01 X8.96 Y9.26 
G01 X8.96 Y9.25 
G01 X8.99 Y9.22 
G01 X9.02 Y9.19 
G01 X9.03 Y9.18 
G01 X9.04 Y9.17 
G01 X9.07 Y9.15 
G01 X9.11 Y9.13 
G01 X9.12 Y9.13 
G01 X9.13 Y9.12 
G01 X9.17 Y9.11 
G01 X9.21 Y9.10 
G01 X9.22 Y9.10 
G01 X9.23 Y9.09 
G01 X9.27 Y9.09 
G01 X9.31 Y9.09 
G01 X9.33 Y9.09 
G01 X10.24 Y9.09 
G01 X10.36 Y8.97 
G01 X10.36 Y3.73 
G01 X10.24 Y3.61 
G01 X7.54 Y3.61 
G01 X7.42 Y3.73 
G01 X7.42 Y8.97 
G01 X7.53 Y9.09 
G01 X7.56 Y9.12 
G01 X7.57 Y9.13 
G01 X7.58 Y9.14 
G01 X7.60 Y9.17 
G01 X7.62 Y9.20 
G01 X7.63 Y9.22 
G01 X7.63 Y9.23 
G01 X7.64 Y9.27 
G01 X7.66 Y9.31 
G01 X7.66 Y9.32 
G01 X7.66 Y9.33 
G01 X7.66 Y9.37 
G01 X7.66 Y9.41 
G01 X7.66 Y9.42 
G01 X7.66 Y9.44 
G01 X7.65 Y9.48 
G01 X7.39 Y10.80 
G01 X7.39 Y10.81 
G01 X7.38 Y10.85 
G01 X7.37 Y10.89 
G01 X7.36 Y10.90 
G01 X7.36 Y10.91 
G01 X7.34 Y10.95 
G01 X7.32 Y10.98 
G01 X7.31 Y10.99 
G01 X7.31 Y11.00 
G01 X7.28 Y11.03 
G01 X7.25 Y11.06 
G01 X7.24 Y11.07 
G01 X7.23 Y11.08 
G01 X7.20 Y11.10 
G01 X7.16 Y11.12 
G01 X7.15 Y11.12 
G01 X7.14 Y11.13 
G01 X7.10 Y11.14 
G01 X7.06 Y11.15 
G01 X7.05 Y11.16 
G01 X7.04 Y11.16 
G01 X7.00 Y11.16 
G01 X6.96 Y11.16 
G01 X6.94 Y11.16 
G01 X6.93 Y11.16 
G01 X6.89 Y11.15 
G01 X6.85 Y11.14 
G01 X6.84 Y11.13 
G01 X6.83 Y11.13 
G01 X6.79 Y11.11 
G01 X6.76 Y11.09 
G01 X6.75 Y11.08 
G01 X6.74 Y11.08 
G01 X6.71 Y11.05 
G01 X6.68 Y11.02 
G01 X6.67 Y11.01 
G01 X6.66 Y11.00 
G01 X6.64 Y10.97 
G01 X6.62 Y10.94 
G01 X6.62 Y10.92 
G01 X6.61 Y10.91 
G01 X6.60 Y10.87 
G01 X6.59 Y10.84 
G01 X6.59 Y10.82 
G01 X6.58 Y10.81 
G01 X6.58 Y10.77 
G01 X6.58 Y10.73 
G01 X6.58 Y10.72 
G01 X6.58 Y10.48 
G01 X6.57 Y10.44 
G01 X6.55 Y10.41 
G01 X6.52 Y10.38 
G01 X6.49 Y10.36 
G01 X6.45 Y10.35 
G01 X5.58 Y10.35 
G01 X5.58 Y10.40 
G01 X6.45 Y10.40 
G01 X6.49 Y10.41 
G01 X6.52 Y10.44 
G01 X6.53 Y10.48 
G01 X6.53 Y12.12 
G01 X6.52 Y12.16 
G01 X6.49 Y12.19 
G01 X6.45 Y12.20 
G01 X5.58 Y12.20 
G01 X5.58 Y12.25 
G01 X6.30 Y12.25 
G01 X6.40 Y12.28 
G01 X6.49 Y12.33 
G01 X6.57 Y12.41 
G01 X6.62 Y12.50 
G01 X6.65 Y12.60 
G01 X6.65 Y12.71 
G01 X6.62 Y12.81 
G01 X6.57 Y12.90 
G01 X6.49 Y12.98 
G01 X6.45 Y13.02 
G01 X6.36 Y13.07 
G01 X6.26 Y13.10 
G01 X3.65 Y13.10 
G01 X3.53 Y13.22 
G01 X3.53 Y14.98 
G01 X3.65 Y15.10 
G01 X3.89 Y15.10 
G01 X4.00 Y15.13 
G01 X4.09 Y15.18 
G01 X4.16 Y15.26 
G01 X4.21 Y15.35 
G01 X4.24 Y15.45 
G01 X4.24 Y16.70 
G01 X4.25 Y16.72 
G01 X4.25 Y16.74 
G01 X4.25 Y16.77 
G01 X4.25 Y16.80 
G01 X4.25 Y19.37 
G01 X4.37 Y19.49 
G01 X8.33 Y19.49 
G01 X8.45 Y19.37 
G01 X8.45 Y16.66 
G01 X8.45 Y16.63 
G01 X8.45 Y16.61 
G01 X8.45 Y16.58 
G01 X8.46 Y16.55 
G01 X8.46 Y16.53 
G01 X8.47 Y16.50 
G01 X8.48 Y16.48 
G01 X8.49 Y16.45 
G01 X8.50 Y16.43 
G01 X8.52 Y16.41 
G01 X8.53 Y16.38 
G01 X8.55 Y16.37 
G01 X9.64 Y14.92 
G01 X9.65 Y14.91 
G01 X9.68 Y14.88 
G01 X9.70 Y14.84 
G01 X9.71 Y14.84 
G01 X9.72 Y14.83 
G01 X9.75 Y14.80 
G01 X9.78 Y14.78 
G01 X9.79 Y14.77 
G01 X9.80 Y14.77 
G01 X9.84 Y14.75 
G01 X9.88 Y14.74 
G01 X9.89 Y14.74 
G01 X9.90 Y14.73 
G01 X9.94 Y14.73 
G01 X9.99 Y14.72 
G01 X10.00 Y14.72 
G01 X10.01 Y14.72 
G01 X10.05 Y14.73 
G01 X10.09 Y14.74 
G01 X10.10 Y14.74 
G01 X10.11 Y14.74 
G01 X10.15 Y14.76 
G01 X10.19 Y14.78 
G01 X10.20 Y14.78 
G01 X10.21 Y14.79 
G01 X10.24 Y14.81 
G01 X10.27 Y14.84 
G01 X10.28 Y14.85 
G01 X10.29 Y14.86 
G01 X10.31 Y14.89 
G01 X10.34 Y14.92 
G01 X10.34 Y14.93 
G01 X10.35 Y14.94 
G01 X10.36 Y14.98 
G01 X10.38 Y15.02 
G01 X10.38 Y15.03 
G01 X10.39 Y15.04 
G01 X10.39 Y15.08 
G01 X10.39 Y15.12 
G01 X10.39 Y15.14 
G01 X10.45 Y15.84 
G01 X10.46 Y15.85 
G01 X10.46 Y15.89 
G01 X10.46 Y15.92 
G01 X10.46 Y15.94 
G01 X10.46 Y15.96 
G01 X10.45 Y15.99 
G01 X10.44 Y16.03 
G01 X10.43 Y16.04 
G01 X10.43 Y16.06 
G01 X10.41 Y16.09 
G01 X10.39 Y16.12 
G01 X10.38 Y16.14 
G01 X10.38 Y16.15 
G01 X10.35 Y16.18 
G01 X10.33 Y16.21 
G01 X10.31 Y16.22 
G01 X10.30 Y16.23 
G01 X10.27 Y16.25 
G01 X10.24 Y16.27 
G01 X10.22 Y16.27 
G01 X10.21 Y16.28 
G01 X10.17 Y16.29 
G01 X10.14 Y16.30 
G01 X10.12 Y16.30 
G01 X10.11 Y16.31 
G01 X10.08 Y16.31 
G01 X9.96 Y16.43 
G01 X9.96 Y21.67 
G01 X9.93 Y21.78 
G01 X9.88 Y21.87 
G01 X9.80 Y21.94 
G01 X9.71 Y21.99 
G01 X9.61 Y22.02 
G01 X7.71 Y22.02 
G01 X7.69 Y22.03 
G01 X7.66 Y22.02 
G01 X7.62 Y22.02 
G01 X7.60 Y22.02 
G01 X7.53 Y22.01 
G01 X7.50 Y22.02 
G01 X7.49 Y22.02 
G01 X7.48 Y22.02 
G01 X7.45 Y22.02 
G01 X7.38 Y22.05 
G01 X7.37 Y22.06 
G01 X7.33 Y22.07 
G01 X7.30 Y22.09 
G01 X7.28 Y22.09 
G01 X7.21 Y22.11 
G01 X7.19 Y22.13 
G01 X7.18 Y22.13 
G01 X7.17 Y22.14 
G01 X7.15 Y22.15 
G01 X7.09 Y22.20 
G01 X7.08 Y22.22 
G01 X7.05 Y22.24 
G01 X7.03 Y22.27 
G01 X7.01 Y22.28 
G01 X6.95 Y22.32 
G01 X6.94 Y22.35 
G01 X6.94 Y22.36 
G01 X6.93 Y22.36 
G01 X6.91 Y22.39 
G01 X6.88 Y22.46 
G01 X6.88 Y22.47 
G01 X6.86 Y22.50 
G01 X6.85 Y22.54 
G01 X6.84 Y22.55 
G01 X6.38 Y23.43 
G01 X6.37 Y23.44 
G01 X6.35 Y23.48 
G01 X6.33 Y23.52 
G01 X6.32 Y23.52 
G01 X6.32 Y23.53 
G01 X6.29 Y23.56 
G01 X6.26 Y23.60 
G01 X6.25 Y23.60 
G01 X6.25 Y23.61 
G01 X6.21 Y23.63 
G01 X6.17 Y23.65 
G01 X6.16 Y23.66 
G01 X6.15 Y23.66 
G01 X6.11 Y23.67 
G01 X6.07 Y23.68 
G01 X6.06 Y23.68 
G01 X6.05 Y23.69 
G01 X6.01 Y23.69 
G01 X5.96 Y23.69 
G01 X5.95 Y23.69 
G01 X4.37 Y23.69 
G01 X4.25 Y23.81 
G01 X4.25 Y26.77 
G01 X4.37 Y26.89 
G01 X8.33 Y26.89 
G01 X8.45 Y26.77 
G01 X8.45 Y24.05 
G01 X8.48 Y23.94 
G01 X8.53 Y23.85 
G01 X8.61 Y23.78 
G01 X8.70 Y23.73 
G01 X8.80 Y23.70 
G01 X9.61 Y23.70 
G01 X9.71 Y23.73 
G01 X9.80 Y23.78 
G01 X9.88 Y23.85 
G01 X9.93 Y23.94 
G01 X9.96 Y24.05 
G01 X9.96 Y29.29 
G01 X10.08 Y29.41 
G01 X11.76 Y29.41 
G01 X11.81 Y29.41 
G01 X11.86 Y29.41 
G01 X11.91 Y29.43 
G01 X11.97 Y29.44 
G01 X12.01 Y29.47 
G01 X12.06 Y29.49 
G01 X12.10 Y29.53 
G01 X12.13 Y29.57 
G01 X12.16 Y29.61 
G01 X12.19 Y29.66 
G01 X14.66 Y33.96 
G01 X14.69 Y34.01 
G01 X14.70 Y34.06 
G01 X14.72 Y34.11 
G01 X14.72 Y34.16 
G01 X14.72 Y36.17 
G01 X14.84 Y36.29 
G01 X16.80 Y36.29 
G01 X16.92 Y36.17 
G01 X16.92 Y32.41 
G01 X16.80 Y32.29 
G01 X15.92 Y32.29 
G01 X15.87 Y32.29 
G01 X15.81 Y32.29 
G01 X15.76 Y32.27 
G01 X15.71 Y32.26 
G01 X15.66 Y32.23 
G01 X15.62 Y32.21 
G01 X15.58 Y32.17 
G01 X15.54 Y32.13 
G01 X15.52 Y32.09 
G01 X15.49 Y32.04 
G01 X12.96 Y27.64 
G01 X12.93 Y27.60 
G01 X12.92 Y27.54 
G01 X12.90 Y27.49 
G01 X12.90 Y27.44 
G01 X12.90 Y24.05 
G01 X12.93 Y23.94 
G01 X12.98 Y23.85 
G01 X13.06 Y23.78 
G01 X13.15 Y23.73 
G01 X13.25 Y23.70 
G01 X20.88 Y23.70 
G01 X20.98 Y23.73 
G01 X21.07 Y23.78 
G01 X21.15 Y23.85 
G01 X21.20 Y23.94 
G01 X21.23 Y24.05 
G01 X21.23 Y27.27 
G01 X21.35 Y27.39 
G01 X23.12 Y27.39 
G01 X23.16 Y27.39 
G01 X23.18 Y27.39 
G01 X23.19 Y27.39 
G01 X23.23 Y27.40 
G01 X23.27 Y27.41 
G01 X23.28 Y27.42 
G01 X23.29 Y27.42 
G01 X23.33 Y27.44 
G01 X23.36 Y27.46 
G01 X23.37 Y27.47 
G01 X23.38 Y27.47 
G01 X23.41 Y27.50 
G01 X23.44 Y27.53 
G01 X23.45 Y27.54 
G01 X23.46 Y27.55 
G01 X23.48 Y27.58 
G01 X23.50 Y27.61 
G01 X23.51 Y27.63 
G01 X23.51 Y27.64 
G01 X23.52 Y27.68 
G01 X23.54 Y27.71 
G01 X23.54 Y27.73 
G01 X23.54 Y27.74 
G01 X23.54 Y27.78 
G01 X23.83 Y32.06 
G01 X23.83 Y32.07 
G01 X23.83 Y32.11 
G01 X23.84 Y32.15 
G01 X23.83 Y32.16 
G01 X23.83 Y32.18 
G01 X23.82 Y32.21 
G01 X23.82 Y32.25 
G01 X23.81 Y32.27 
G01 X23.81 Y32.28 
G01 X23.79 Y32.31 
G01 X23.77 Y32.35 
G01 X23.76 Y32.36 
G01 X23.75 Y32.37 
G01 X23.72 Y32.40 
G01 X23.72 Y32.41 
G01 X23.72 Y36.17 
G01 X23.84 Y36.29 
G01 X25.80 Y36.29 
G01 X25.92 Y36.17 
G01 X25.92 Y32.41 
G01 X25.79 Y32.27 
G01 X25.77 Y32.27 
G01 X25.76 Y32.26 
G01 X25.74 Y32.26 
G01 X25.71 Y32.24 
G01 X25.68 Y32.22 
G01 X25.67 Y32.21 
G01 X25.65 Y32.21 
G01 X25.63 Y32.18 
G01 X25.60 Y32.15 
G01 X25.59 Y32.14 
G01 X25.58 Y32.13 
G01 X25.56 Y32.10 
G01 X25.54 Y32.07 
G01 X25.53 Y32.05 
G01 X25.53 Y32.04 
G01 X25.52 Y32.00 
G01 X25.50 Y31.97 
G01 X25.50 Y31.95 
G01 X25.50 Y31.94 
G01 X25.50 Y31.90 
G01 X25.22 Y27.86 
G01 X25.22 Y27.85 
G01 X25.22 Y27.81 
G01 X25.22 Y27.77 
G01 X25.22 Y27.76 
G01 X25.22 Y27.74 
G01 X25.23 Y27.70 
G01 X25.24 Y27.67 
G01 X25.25 Y27.65 
G01 X25.25 Y27.64 
G01 X25.27 Y27.61 
G01 X25.29 Y27.57 
G01 X25.29 Y27.56 
G01 X25.30 Y27.55 
G01 X25.33 Y27.52 
G01 X25.36 Y27.49 
G01 X25.37 Y27.48 
G01 X25.38 Y27.47 
G01 X25.41 Y27.45 
G01 X25.44 Y27.43 
G01 X25.46 Y27.43 
G01 X25.47 Y27.42 
G01 X25.51 Y27.41 
G01 X25.54 Y27.40 
G01 X25.56 Y27.40 
G01 X25.57 Y27.39 
G01 X25.61 Y27.39 
G01 X25.65 Y27.39 
G01 X25.66 Y27.39 
G01 X26.91 Y27.39 
G01 X27.03 Y27.27 
G01 X27.03 Y20.91 
G01 X26.91 Y20.79 
G01 X21.35 Y20.79 
G01 X21.23 Y20.91 
G01 X21.23 Y21.67 
G01 X21.20 Y21.78 
G01 X21.15 Y21.87 
G01 X21.07 Y21.94 
G01 X20.98 Y21.99 
G01 X20.88 Y22.02 
G01 X13.25 Y22.02 
G01 X13.15 Y21.99 
G01 X13.06 Y21.94 
G01 X12.98 Y21.87 
G01 X12.93 Y21.78 
G01 X12.90 Y21.67 
G01 X12.90 Y16.43 
G01 X12.78 Y16.31 
G01 X12.30 Y16.31 
G01 X12.27 Y16.31 
G01 X12.25 Y16.31 
G01 X12.23 Y16.31 
G01 X12.20 Y16.30 
G01 X12.16 Y16.29 
G01 X12.15 Y16.28 
G01 X12.13 Y16.28 
G01 X12.10 Y16.26 
G01 X12.07 Y16.25 
G01 X12.05 Y16.24 
G01 X12.04 Y16.23 
G01 X12.01 Y16.20 
G01 X11.99 Y16.18 
G01 X11.98 Y16.16 
G01 X11.96 Y16.15 
G01 X11.95 Y16.12 
G01 X11.93 Y16.09 
G01 X11.92 Y16.07 
G01 X11.91 Y16.06 
G01 X11.90 Y16.03 
G01 X11.89 Y15.99 
G01 X11.89 Y15.97 
G01 X11.88 Y15.96 
G01 X11.88 Y15.92 
G01 X11.72 Y13.90 
G01 X11.71 Y13.88 
G01 X11.71 Y13.84 
G01 X11.71 Y13.81 
G01 X11.71 Y13.79 
G01 X11.71 Y13.34 
G01 X11.69 Y13.32 
G01 X11.64 Y13.22 
G01 X11.61 Y13.12 
G01 X11.61 Y13.02 
G01 X11.63 Y12.96 
G01 X11.64 Y12.91 
G01 X11.65 Y12.89 
G01 X11.69 Y12.82 
G01 X11.77 Y12.75 
G01 X11.86 Y12.70 
G01 X11.96 Y12.67 
G01 X12.26 Y12.67 
G01 X12.36 Y12.70 
G01 X12.45 Y12.75 
G01 X12.53 Y12.82 
G01 X12.58 Y12.91 
G01 X12.61 Y13.02 
G01 X12.61 Y13.72 
G01 X12.73 Y13.84 
G01 X13.33 Y13.84 
G01 X13.38 Y13.84 
G01 X13.43 Y13.85 
G01 X13.48 Y13.86 
G01 X13.53 Y13.89 
G01 X13.58 Y13.92 
G01 X13.61 Y13.96 
G01 X13.65 Y13.99 
G01 X13.68 Y14.04 
G01 X13.70 Y14.08 
G01 X13.72 Y14.14 
G01 X14.20 Y15.91 
G01 X14.21 Y15.96 
G01 X14.22 Y16.01 
G01 X14.22 Y16.06 
G01 X14.22 Y16.11 
G01 X14.21 Y16.17 
G01 X14.20 Y16.22 
G01 X14.17 Y16.26 
G01 X14.14 Y16.31 
G01 X14.11 Y16.35 
G01 X14.11 Y19.21 
G01 X14.23 Y19.33 
G01 X15.99 Y19.33 
G01 X16.11 Y19.21 
G01 X16.11 Y16.35 
G01 X15.99 Y16.23 
G01 X15.41 Y16.23 
G01 X15.35 Y16.23 
G00 Z2.00 
G00 X12.80 Y24.11 
G01 Z-0.19 F35.00 
G01 X12.80 Y27.58 F140.00 
G01 X15.57 Y32.39 
G01 X16.74 Y32.39 
G01 X16.78 Y32.40 
G01 X16.81 Y32.43 
G01 X16.82 Y32.47 
G01 X16.82 Y36.11 
G01 X16.81 Y36.15 
G01 X16.78 Y36.18 
G01 X16.74 Y36.19 
G01 X14.90 Y36.19 
G01 X14.86 Y36.18 
G01 X14.83 Y36.15 
G01 X14.82 Y36.11 
G01 X14.82 Y34.03 
G01 X12.10 Y29.31 
G01 X10.14 Y29.31 
G01 X10.10 Y29.30 
G01 X10.07 Y29.27 
G01 X10.06 Y29.23 
G01 X10.06 Y24.11 
G01 X10.07 Y24.07 
G01 X10.10 Y24.04 
G01 X10.14 Y24.03 
G01 X12.72 Y24.03 
G01 X12.76 Y24.04 
G01 X12.79 Y24.07 
G01 X12.80 Y24.11 
G00 Z2.00 
G00 X26.93 Y20.97 
G01 Z-0.19 F35.00 
G01 X26.93 Y27.21 F140.00 
G01 X26.92 Y27.25 
G01 X26.89 Y27.28 
G01 X26.85 Y27.29 
G01 X25.09 Y27.29 
G01 X25.43 Y32.39 
G01 X25.74 Y32.39 
G01 X25.78 Y32.40 
G01 X25.81 Y32.43 
G01 X25.82 Y32.47 
G01 X25.82 Y36.11 
G01 X25.81 Y36.15 
G01 X25.78 Y36.18 
G01 X25.74 Y36.19 
G01 X23.90 Y36.19 
G01 X23.86 Y36.18 
G01 X23.83 Y36.15 
G01 X23.82 Y36.11 
G01 X23.82 Y32.47 
G01 X23.83 Y32.43 
G01 X23.86 Y32.40 
G01 X23.90 Y32.39 
G01 X23.95 Y32.39 
G01 X23.61 Y27.29 
G01 X21.41 Y27.29 
G01 X21.37 Y27.28 
G01 X21.34 Y27.25 
G01 X21.33 Y27.21 
G01 X21.33 Y23.60 
G01 X8.07 Y23.60 
G01 X7.97 Y23.79 
G01 X8.27 Y23.79 
G01 X8.31 Y23.80 
G01 X8.34 Y23.83 
G01 X8.35 Y23.87 
G01 X8.35 Y26.71 
G01 X8.34 Y26.75 
G01 X8.31 Y26.78 
G01 X8.27 Y26.79 
G01 X4.43 Y26.79 
G01 X4.39 Y26.78 
G01 X4.36 Y26.75 
G01 X4.35 Y26.71 
G01 X4.35 Y23.87 
G01 X4.36 Y23.83 
G01 X4.39 Y23.80 
G01 X4.43 Y23.79 
G01 X6.30 Y23.79 
G01 X6.95 Y22.55 
G01 X6.97 Y22.51 
G01 X6.99 Y22.48 
G01 X7.00 Y22.45 
G01 X7.03 Y22.42 
G01 X7.05 Y22.39 
G01 X7.07 Y22.37 
G01 X7.09 Y22.34 
G01 X7.12 Y22.32 
G01 X7.15 Y22.29 
G01 X7.18 Y22.27 
G01 X7.20 Y22.25 
G01 X7.24 Y22.23 
G01 X7.27 Y22.21 
G01 X7.30 Y22.19 
G01 X7.33 Y22.18 
G01 X7.37 Y22.17 
G01 X7.41 Y22.15 
G01 X7.44 Y22.14 
G01 X7.47 Y22.14 
G01 X7.51 Y22.13 
G01 X7.55 Y22.12 
G01 X7.58 Y22.12 
G01 X7.61 Y22.12 
G01 X7.65 Y22.12 
G01 X21.33 Y22.12 
G01 X21.33 Y20.97 
G01 X21.34 Y20.93 
G01 X21.37 Y20.90 
G01 X21.41 Y20.89 
G01 X26.85 Y20.89 
G01 X26.89 Y20.90 
G01 X26.92 Y20.93 
G01 X26.93 Y20.97 
G00 Z2.00 
G00 X16.01 Y16.41 
G01 Z-0.19 F35.00 
G01 X16.01 Y19.15 F140.00 
G01 X16.00 Y19.19 
G01 X15.97 Y19.22 
G01 X15.93 Y19.23 
G01 X14.29 Y19.23 
G01 X14.25 Y19.22 
G01 X14.22 Y19.19 
G01 X14.21 Y19.15 
G01 X14.21 Y16.41 
G01 X14.22 Y16.37 
G01 X14.25 Y16.34 
G01 X14.29 Y16.33 
G01 X14.42 Y16.33 
G01 X13.72 Y13.74 
G01 X12.79 Y13.74 
G01 X12.75 Y13.72 
G01 X12.72 Y13.69 
G01 X12.71 Y13.66 
G01 X12.71 Y13.01 
G01 X12.72 Y12.98 
G01 X12.75 Y12.95 
G01 X12.79 Y12.93 
G01 X15.03 Y12.93 
G01 X15.07 Y12.95 
G01 X15.10 Y12.98 
G01 X15.11 Y13.01 
G01 X15.11 Y13.66 
G01 X15.10 Y13.69 
G01 X15.07 Y13.72 
G01 X15.03 Y13.74 
G01 X14.32 Y13.74 
G01 X15.02 Y16.33 
G01 X15.93 Y16.33 
G01 X15.97 Y16.34 
G01 X16.00 Y16.37 
G01 X16.01 Y16.41 
G00 Z2.00 
G00 X15.03 Y10.39 
G01 Z-0.19 F35.00 
G01 X15.07 Y10.41 F140.00 
G01 X15.10 Y10.44 
G01 X15.11 Y10.47 
G01 X15.11 Y11.12 
G01 X15.10 Y11.15 
G01 X15.07 Y11.18 
G01 X15.03 Y11.20 
G01 X9.71 Y11.20 
G01 X9.71 Y13.32 
G01 X9.83 Y13.32 
G01 X9.87 Y13.33 
G01 X9.90 Y13.36 
G01 X9.91 Y13.40 
G01 X9.91 Y13.54 
G01 X9.98 Y13.66 
G01 X10.03 Y13.80 
G01 X10.05 Y13.94 
G01 X10.04 Y14.08 
G01 X10.01 Y14.23 
G01 X9.94 Y14.36 
G01 X9.91 Y14.40 
G01 X9.91 Y14.54 
G01 X9.90 Y14.58 
G01 X9.87 Y14.61 
G01 X9.83 Y14.62 
G01 X9.74 Y14.62 
G01 X8.35 Y16.46 
G01 X8.35 Y16.47 
G01 X8.35 Y19.31 
G01 X8.34 Y19.35 
G01 X8.31 Y19.38 
G01 X8.27 Y19.39 
G01 X4.43 Y19.39 
G01 X4.39 Y19.38 
G01 X4.36 Y19.35 
G01 X4.35 Y19.31 
G01 X4.35 Y16.61 
G01 X4.34 Y16.58 
G01 X4.34 Y15.00 
G01 X3.71 Y15.00 
G01 X3.67 Y14.99 
G01 X3.64 Y14.96 
G01 X3.63 Y14.92 
G01 X3.63 Y13.28 
G01 X3.64 Y13.24 
G01 X3.67 Y13.21 
G01 X3.71 Y13.20 
G01 X6.41 Y13.20 
G01 X7.16 Y12.45 
G01 X7.85 Y8.99 
G01 X7.60 Y8.99 
G01 X7.56 Y8.98 
G01 X7.53 Y8.95 
G01 X7.52 Y8.91 
G01 X7.52 Y3.79 
G01 X7.53 Y3.75 
G01 X7.56 Y3.72 
G01 X7.60 Y3.71 
G01 X10.18 Y3.71 
G01 X10.22 Y3.72 
G01 X10.25 Y3.75 
G01 X10.26 Y3.79 
G01 X10.26 Y8.91 
G01 X10.25 Y8.95 
G01 X10.22 Y8.98 
G01 X10.18 Y8.99 
G01 X8.87 Y8.99 
G01 X8.12 Y12.75 
G01 X8.12 Y12.77 
G01 X8.11 Y12.81 
G01 X8.10 Y12.86 
G01 X8.09 Y12.88 
G01 X8.09 Y12.89 
G01 X8.06 Y12.94 
G01 X8.04 Y12.98 
G01 X8.03 Y12.99 
G01 X8.02 Y13.01 
G01 X7.99 Y13.04 
G01 X7.95 Y13.08 
G01 X7.94 Y13.09 
G01 X6.62 Y14.41 
G01 X6.53 Y14.50 
G01 X6.53 Y14.92 
G01 X6.52 Y14.96 
G01 X6.49 Y14.99 
G01 X6.45 Y15.00 
G01 X5.82 Y15.00 
G01 X5.82 Y16.39 
G01 X6.56 Y16.39 
G01 X8.71 Y13.54 
G01 X8.71 Y13.40 
G01 X8.72 Y13.36 
G01 X8.75 Y13.33 
G01 X8.79 Y13.32 
G01 X8.91 Y13.32 
G01 X8.91 Y10.74 
G01 X8.94 Y10.64 
G01 X8.99 Y10.55 
G01 X9.06 Y10.47 
G01 X9.15 Y10.42 
G01 X9.26 Y10.39 
G01 X13.96 Y10.39 
G01 X15.03 Y10.39 
G00 Z2.00 
G00 X15.03 Y11.66 
G01 Z-0.19 F35.00 
G01 X15.07 Y11.68 F140.00 
G01 X15.10 Y11.71 
G01 X15.11 Y11.74 
G01 X15.11 Y12.39 
G01 X15.10 Y12.42 
G01 X15.07 Y12.45 
G01 X15.03 Y12.47 
G01 X14.22 Y12.47 
G01 X14.10 Y12.53 
G01 X13.98 Y12.57 
G01 X11.51 Y12.57 
G01 X11.51 Y13.32 
G01 X11.53 Y13.32 
G01 X11.57 Y13.33 
G01 X11.60 Y13.36 
G01 X11.61 Y13.40 
G01 X11.61 Y13.86 
G01 X11.61 Y13.86 
G01 X11.82 Y16.41 
G01 X12.72 Y16.41 
G01 X12.76 Y16.42 
G01 X12.79 Y16.45 
G01 X12.80 Y16.49 
G01 X12.80 Y21.61 
G01 X12.79 Y21.65 
G01 X12.76 Y21.68 
G01 X12.72 Y21.69 
G01 X10.14 Y21.69 
G01 X10.10 Y21.68 
G01 X10.07 Y21.65 
G01 X10.06 Y21.61 
G01 X10.06 Y16.49 
G01 X10.07 Y16.45 
G01 X10.10 Y16.42 
G01 X10.14 Y16.41 
G01 X10.60 Y16.41 
G01 X10.45 Y14.60 
G01 X10.42 Y14.58 
G01 X10.41 Y14.54 
G01 X10.41 Y14.09 
G01 X10.40 Y13.96 
G01 X10.41 Y13.87 
G01 X10.41 Y13.40 
G01 X10.42 Y13.36 
G01 X10.45 Y13.33 
G01 X10.49 Y13.32 
G01 X10.51 Y13.32 
G01 X10.51 Y12.00 
G01 X10.54 Y11.87 
G01 X10.61 Y11.76 
G01 X10.70 Y11.66 
G01 X10.82 Y11.60 
G01 X10.94 Y11.56 
G01 X13.98 Y11.56 
G01 X14.10 Y11.60 
G01 X14.22 Y11.66 
G01 X15.03 Y11.66 
G00 Z2.00 
G00 X17.09 Y16.28 
G01 Z-0.19 F35.00 
G01 X17.05 Y16.29 F140.00 
G01 X17.02 Y16.31 
G01 X16.99 Y16.34 
G01 X16.97 Y16.37 
G01 X16.96 Y16.41 
G01 X16.96 Y17.28 
G01 X17.01 Y17.28 
G01 X17.01 Y16.41 
G01 X17.02 Y16.37 
G01 X17.05 Y16.34 
G01 X17.09 Y16.33 
G01 X17.41 Y16.33 
G01 X17.41 Y16.28 
G01 X17.09 Y16.28 
G00 Z2.00 
G00 X18.80 Y19.25 
G01 Z-0.19 F35.00 
G01 X18.83 Y19.22 F140.00 
G01 X18.85 Y19.19 
G01 X18.86 Y19.15 
G01 X18.86 Y18.28 
G01 X18.81 Y18.28 
G01 X18.81 Y19.15 
G01 X18.80 Y19.19 
G01 X18.77 Y19.22 
G01 X18.73 Y19.23 
G01 X18.41 Y19.23 
G01 X18.41 Y19.28 
G01 X18.73 Y19.28 
G01 X18.77 Y19.27 
G01 X18.80 Y19.25 
G00 Z2.00 
G00 X18.86 Y16.41 
G01 Z-0.19 F35.00 
G01 X18.85 Y16.37 F140.00 
G01 X18.83 Y16.34 
G01 X18.80 Y16.31 
G01 X18.77 Y16.29 
G01 X18.73 Y16.28 
G01 X18.41 Y16.28 
G01 X18.41 Y16.33 
G01 X18.73 Y16.33 
G01 X18.77 Y16.34 
G01 X18.80 Y16.37 
G01 X18.81 Y16.41 
G01 X18.81 Y17.28 
G01 X18.86 Y17.28 
G01 X18.86 Y16.41 
G00 Z2.00 
G00 X16.96 Y19.15 
G01 Z-0.19 F35.00 
G01 X16.97 Y19.19 F140.00 
G01 X16.99 Y19.22 
G01 X17.02 Y19.25 
G01 X17.05 Y19.27 
G01 X17.09 Y19.28 
G01 X17.41 Y19.28 
G01 X17.41 Y19.23 
G01 X17.09 Y19.23 
G01 X17.05 Y19.22 
G01 X17.02 Y19.19 
G01 X17.01 Y19.15 
G01 X17.01 Y18.28 
G01 X16.96 Y18.28 
G01 X16.96 Y19.15 
G00 Z2.00 
G00 X15.10 Y9.10 
G01 Z-0.19 F35.00 
G01 X15.07 Y9.08 F140.00 
G01 X15.03 Y9.07 
G01 X14.31 Y9.07 
G01 X14.31 Y9.12 
G01 X15.12 Y9.12 
G01 X15.10 Y9.10 
G00 Z2.00 
G00 X12.79 Y9.07 
G01 Z-0.19 F35.00 
G01 X12.75 Y9.08 F140.00 
G01 X12.72 Y9.10 
G01 X12.70 Y9.12 
G01 X13.51 Y9.12 
G01 X13.51 Y9.07 
G01 X12.79 Y9.07 
G00 Z2.00 
G00 X27.01 Y17.61 
G01 Z-0.19 F35.00 
G01 X27.00 Y17.65 F140.00 
G01 X26.97 Y17.68 
G01 X26.93 Y17.69 
G01 X26.81 Y17.69 
G01 X26.81 Y17.74 
G01 X26.93 Y17.74 
G01 X26.97 Y17.73 
G01 X27.00 Y17.71 
G01 X27.03 Y17.68 
G01 X27.05 Y17.65 
G01 X27.06 Y17.61 
G01 X27.06 Y17.19 
G01 X27.01 Y17.19 
G01 X27.01 Y17.61 
G00 Z2.00 
G00 X27.01 Y15.97 
G01 Z-0.19 F35.00 
G01 X27.01 Y16.39 F140.00 
G01 X27.06 Y16.39 
G01 X27.06 Y15.97 
G01 X27.05 Y15.93 
G01 X27.03 Y15.90 
G01 X27.00 Y15.87 
G01 X26.97 Y15.85 
G01 X26.93 Y15.84 
G01 X26.68 Y15.84 
G01 X26.63 Y15.84 
G01 X26.58 Y15.84 
G01 X26.51 Y15.82 
G01 X26.48 Y15.81 
G01 X26.41 Y15.77 
G01 X26.38 Y15.76 
G01 X26.33 Y15.71 
G01 X26.31 Y15.68 
G01 X26.28 Y15.64 
G01 X26.26 Y15.59 
G01 X26.24 Y15.53 
G01 X26.23 Y15.49 
G01 X26.23 Y15.44 
G01 X26.23 Y15.38 
G01 X26.25 Y15.31 
G01 X26.26 Y15.28 
G01 X26.29 Y15.21 
G01 X26.31 Y15.19 
G01 X26.36 Y15.14 
G01 X26.38 Y15.11 
G01 X26.42 Y15.09 
G01 X26.45 Y15.06 
G01 X26.47 Y15.03 
G01 X26.48 Y14.99 
G01 X26.48 Y14.47 
G01 X26.43 Y14.47 
G01 X26.43 Y14.99 
G01 X26.42 Y15.03 
G01 X26.39 Y15.06 
G01 X26.35 Y15.07 
G01 X26.03 Y15.07 
G01 X26.03 Y15.56 
G01 X26.01 Y15.65 
G01 X26.00 Y15.67 
G01 X25.97 Y15.73 
G01 X25.95 Y15.76 
G01 X25.91 Y15.80 
G01 X25.88 Y15.83 
G01 X25.84 Y15.86 
G01 X25.82 Y15.87 
G01 X25.79 Y15.90 
G01 X25.77 Y15.93 
G01 X25.76 Y15.97 
G01 X25.76 Y16.39 
G01 X25.81 Y16.39 
G01 X25.81 Y15.97 
G01 X25.82 Y15.93 
G01 X25.85 Y15.90 
G01 X25.89 Y15.89 
G01 X26.93 Y15.89 
G01 X26.97 Y15.90 
G01 X27.00 Y15.93 
G01 X27.01 Y15.97 
G00 Z2.00 
G00 X24.71 Y12.82 
G01 Z-0.19 F35.00 
G01 X24.67 Y12.83 F140.00 
G01 X24.64 Y12.85 
G01 X24.61 Y12.88 
G01 X24.59 Y12.91 
G01 X24.58 Y12.95 
G01 X24.58 Y13.47 
G01 X24.63 Y13.47 
G01 X24.63 Y12.95 
G01 X24.64 Y12.91 
G01 X24.67 Y12.88 
G01 X24.71 Y12.87 
G01 X25.03 Y12.87 
G01 X25.03 Y12.82 
G01 X24.71 Y12.82 
G00 Z2.00 
G00 X3.79 Y3.66 
G01 Z-0.19 F35.00 
G01 X3.75 Y3.67 F140.00 
G01 X3.72 Y3.69 
G01 X3.69 Y3.72 
G01 X3.67 Y3.75 
G01 X3.66 Y3.79 
G01 X3.66 Y5.65 
G01 X3.71 Y5.65 
G01 X3.71 Y3.79 
G01 X3.72 Y3.75 
G01 X3.75 Y3.72 
G01 X3.79 Y3.71 
G01 X4.38 Y3.71 
G01 X4.38 Y3.66 
G01 X3.79 Y3.66 
G00 Z2.00 
G00 X6.45 Y3.79 
G01 Z-0.19 F35.00 
G01 X6.45 Y5.65 F140.00 
G01 X6.50 Y5.65 
G01 X6.50 Y3.79 
G01 X6.49 Y3.75 
G01 X6.47 Y3.72 
G01 X6.44 Y3.69 
G01 X6.41 Y3.67 
G01 X6.37 Y3.66 
G01 X5.78 Y3.66 
G01 X5.78 Y3.71 
G01 X6.37 Y3.71 
G01 X6.41 Y3.72 
G01 X6.44 Y3.75 
G01 X6.45 Y3.79 
G00 Z2.00 
G00 X6.45 Y8.91 
G01 Z-0.19 F35.00 
G01 X6.44 Y8.95 F140.00 
G01 X6.41 Y8.98 
G01 X6.37 Y8.99 
G01 X5.78 Y8.99 
G01 X5.78 Y9.04 
G01 X6.37 Y9.04 
G01 X6.41 Y9.03 
G01 X6.44 Y9.01 
G01 X6.47 Y8.98 
G01 X6.49 Y8.95 
G01 X6.50 Y8.91 
G01 X6.50 Y7.05 
G01 X6.45 Y7.05 
G01 X6.45 Y8.91 
G00 Z2.00 
G00 X3.66 Y8.91 
G01 Z-0.19 F35.00 
G01 X3.67 Y8.95 F140.00 
G01 X3.69 Y8.98 
G01 X3.72 Y9.01 
G01 X3.75 Y9.03 
G01 X3.79 Y9.04 
G01 X4.38 Y9.04 
G01 X4.38 Y8.99 
G01 X3.79 Y8.99 
G01 X3.75 Y8.98 
G01 X3.72 Y8.95 
G01 X3.71 Y8.91 
G01 X3.71 Y7.05 
G01 X3.66 Y7.05 
G01 X3.66 Y8.91 
G00 Z2.00 
G00 X3.71 Y10.35 
G01 Z-0.19 F35.00 
G01 X3.67 Y10.36 F140.00 
G01 X3.64 Y10.38 
G01 X3.61 Y10.41 
G01 X3.59 Y10.44 
G01 X3.58 Y10.48 
G01 X3.58 Y10.80 
G01 X3.63 Y10.80 
G01 X3.63 Y10.48 
G01 X3.64 Y10.44 
G01 X3.67 Y10.41 
G01 X3.71 Y10.40 
G01 X4.58 Y10.40 
G01 X4.58 Y10.35 
G01 X3.71 Y10.35 
G00 Z2.00 
G00 X3.58 Y12.12 
G01 Z-0.19 F35.00 
G01 X3.59 Y12.16 F140.00 
G01 X3.61 Y12.19 
G01 X3.64 Y12.22 
G01 X3.67 Y12.24 
G01 X3.71 Y12.25 
G01 X4.58 Y12.25 
G01 X4.58 Y12.20 
G01 X3.71 Y12.20 
G01 X3.67 Y12.19 
G01 X3.64 Y12.16 
G01 X3.63 Y12.12 
G01 X3.63 Y11.80 
G01 X3.58 Y11.80 
G01 X3.58 Y12.12 
G00 Z2.00 
G00 X1.26 Y39.72 
G01 Z-0.19 F35.00 
G01 X1.16 Y39.69 F140.00 
G01 X1.07 Y39.64 
G01 X0.99 Y39.56 
G01 X0.94 Y39.47 
G01 X0.91 Y39.37 
G01 X0.91 Y1.26 
G01 X0.94 Y1.16 
G01 X0.99 Y1.07 
G01 X1.07 Y0.99 
G01 X1.16 Y0.94 
G01 X1.26 Y0.91 
G01 X28.89 Y0.91 
G01 X28.99 Y0.94 
G01 X29.08 Y0.99 
G01 X29.16 Y1.07 
G01 X29.21 Y1.16 
G01 X29.24 Y1.26 
G01 X29.24 Y39.37 
G01 X29.21 Y39.47 
G01 X29.16 Y39.56 
G01 X29.08 Y39.64 
G01 X28.99 Y39.69 
G01 X28.89 Y39.72 
G01 X28.78 Y39.72 
G01 X1.26 Y39.72 
G00 Z2.00 
G00 X13.85 Y10.13 
G01 Z-0.19 F35.00 
G01 X12.81 Y10.13 F140.00 
G01 X12.80 Y10.16 
G01 X12.79 Y10.18 
G01 X12.78 Y10.19 
G01 X14.89 Y10.19 
G01 X14.88 Y10.17 
G01 X14.88 Y10.13 
G01 X14.88 Y10.13 
G01 X13.85 Y10.13 
G00 Z2.00 
G00 X14.93 Y11.46 
G01 Z-0.19 F35.00 
G01 X14.93 Y11.40 F140.00 
G01 X14.13 Y11.40 
G01 X14.24 Y11.44 
G01 X14.27 Y11.46 
G01 X14.93 Y11.46 
G00 Z2.00 
G00 X14.93 Y12.73 
G01 Z-0.19 F35.00 
G01 X14.93 Y12.67 F140.00 
G01 X14.27 Y12.67 
G01 X14.24 Y12.69 
G01 X14.13 Y12.73 
G01 X14.93 Y12.73 
G00 Z2.00 
G00 X10.11 Y14.54 
G01 Z-0.19 F35.00 
G01 X10.12 Y14.54 F140.00 
G01 X10.16 Y14.55 
G01 X10.20 Y14.56 
G01 X10.21 Y14.57 
G01 X10.21 Y14.56 
G01 X10.21 Y14.24 
G01 X10.19 Y14.29 
G01 X10.11 Y14.46 
G01 X10.11 Y14.54 
G00 Z2.00 
G00 X7.18 Y11.33 
G01 Z-0.19 F35.00 
G01 X7.16 Y11.34 F140.00 
G01 X7.16 Y11.34 
G01 X7.10 Y11.35 
G01 X7.04 Y11.36 
G01 X6.98 Y11.36 
G01 X6.92 Y11.36 
G01 X6.87 Y11.35 
G01 X6.81 Y11.34 
G01 X6.75 Y11.31 
G01 X6.73 Y11.30 
G01 X6.73 Y12.14 
G01 X6.71 Y12.22 
G01 X6.69 Y12.25 
G01 X6.71 Y12.27 
G01 X6.78 Y12.37 
G01 X6.82 Y12.48 
G01 X6.83 Y12.50 
G01 X6.97 Y12.35 
G01 X7.18 Y11.33 
G00 Z2.00 
G00 X8.31 Y12.84 
G01 Z-0.19 F35.00 
G01 X8.30 Y12.90 F140.00 
G01 X8.29 Y12.91 
G01 X8.27 Y12.97 
G01 X8.24 Y13.03 
G01 X8.20 Y13.09 
G01 X8.17 Y13.15 
G01 X8.12 Y13.20 
G01 X6.77 Y14.55 
G01 X6.73 Y14.58 
G01 X6.73 Y14.94 
G01 X6.71 Y15.02 
G01 X6.67 Y15.09 
G01 X6.62 Y15.14 
G01 X6.55 Y15.18 
G01 X6.47 Y15.20 
G01 X6.02 Y15.20 
G01 X6.02 Y16.19 
G01 X6.46 Y16.19 
G01 X8.51 Y13.48 
G01 X8.51 Y13.38 
G01 X8.53 Y13.30 
G01 X8.57 Y13.23 
G01 X8.62 Y13.18 
G01 X8.69 Y13.14 
G01 X8.71 Y13.13 
G01 X8.71 Y10.84 
G01 X8.31 Y12.84 
G00 Z2.00 
G00 X9.93 Y13.14 
G01 Z-0.19 F35.00 
G01 X10.00 Y13.18 F140.00 
G01 X10.05 Y13.23 
G01 X10.09 Y13.30 
G01 X10.11 Y13.38 
G01 X10.11 Y13.49 
G01 X10.16 Y13.57 
G01 X10.21 Y13.70 
G01 X10.21 Y13.38 
G01 X10.23 Y13.30 
G01 X10.27 Y13.23 
G01 X10.31 Y13.19 
G01 X10.31 Y12.00 
G01 X10.33 Y11.86 
G01 X10.39 Y11.73 
G01 X10.46 Y11.62 
G01 X10.56 Y11.52 
G01 X10.68 Y11.44 
G01 X10.79 Y11.40 
G01 X9.91 Y11.40 
G01 X9.91 Y13.13 
G01 X9.93 Y13.14 
G00 Z2.00 
G00 X8.82 Y10.36 
G01 Z-0.19 F35.00 
G01 X8.82 Y10.36 F140.00 
G01 X8.81 Y10.34 
G01 X8.77 Y10.52 
G01 X8.78 Y10.51 
G01 X8.84 Y10.41 
G01 X8.87 Y10.39 
G01 X8.82 Y10.36 
G00 Z2.00 
G00 X12.77 Y21.91 
G01 Z-0.19 F35.00 
G01 X12.76 Y21.89 F140.00 
G01 X12.74 Y21.89 
G01 X10.12 Y21.89 
G01 X10.10 Y21.89 
G01 X10.09 Y21.91 
G01 X10.08 Y21.92 
G01 X12.78 Y21.92 
G01 X12.77 Y21.91 
G00 Z2.00 
G00 X10.09 Y23.81 
G01 Z-0.19 F35.00 
G01 X10.10 Y23.83 F140.00 
G01 X10.12 Y23.83 
G01 X12.74 Y23.83 
G01 X12.76 Y23.83 
G01 X12.77 Y23.81 
G01 X12.78 Y23.80 
G01 X10.08 Y23.80 
G01 X10.09 Y23.81 
G00 Z2.00 
G00 X20.28 Y7.92 
G01 Z-0.19 F35.00 
G01 X20.20 Y7.90 F140.00 
G01 X20.13 Y7.86 
G01 X20.08 Y7.81 
G01 X20.04 Y7.74 
G01 X20.02 Y7.66 
G01 X20.02 Y7.44 
G01 X20.00 Y7.45 
G01 X19.89 Y7.50 
G01 X19.77 Y7.52 
G01 X19.72 Y7.52 
G01 X19.73 Y7.56 
G01 X19.73 Y8.92 
G01 X20.25 Y8.92 
G01 X20.33 Y8.94 
G01 X20.40 Y8.98 
G01 X20.45 Y9.04 
G01 X20.49 Y9.11 
G01 X20.51 Y9.19 
G01 X20.51 Y9.86 
G01 X20.49 Y9.94 
G01 X20.45 Y10.01 
G01 X20.40 Y10.07 
G01 X20.35 Y10.09 
G01 X22.16 Y10.09 
G01 X22.16 Y7.92 
G01 X20.28 Y7.92 
G00 Z2.00 
G00 X18.09 Y10.13 
G01 Z-0.19 F35.00 
G01 X18.09 Y10.19 F140.00 
G01 X18.75 Y10.19 
G01 X18.78 Y10.17 
G01 X18.89 Y10.13 
G01 X18.09 Y10.13 
G00 Z2.00 
G00 X18.13 Y11.40 
G01 Z-0.19 F35.00 
G01 X18.13 Y11.40 F140.00 
G01 X18.14 Y11.42 
G01 X18.14 Y11.46 
G01 X18.14 Y11.46 
G01 X18.89 Y11.46 
G01 X18.78 Y11.42 
G01 X18.75 Y11.40 
G01 X18.13 Y11.40 
G00 Z2.00 
G00 X22.20 Y15.69 
G01 Z-0.19 F35.00 
G01 X22.20 Y15.67 F140.00 
G01 X22.19 Y15.63 
G01 X22.19 Y15.52 
G01 X22.20 Y15.47 
G01 X22.21 Y15.40 
G01 X22.24 Y15.34 
G01 X21.89 Y15.69 
G01 X22.20 Y15.69 
G00 Z2.00 
G00 X19.05 Y12.67 
G01 Z-0.19 F35.00 
G01 X18.14 Y12.67 F140.00 
G01 X18.14 Y12.67 
G01 X18.14 Y12.71 
G01 X18.13 Y12.73 
G01 X18.96 Y12.73 
G01 X19.01 Y12.72 
G01 X19.13 Y12.71 
G01 X19.25 Y12.73 
G01 X19.26 Y12.73 
G01 X20.09 Y12.73 
G01 X20.08 Y12.71 
G01 X20.08 Y12.67 
G01 X20.08 Y12.67 
G01 X19.05 Y12.67 
G00 Z2.00 
G00 X1.26 Y39.92 
G01 Z-0.19 F35.00 
G01 X1.14 Y39.89 F140.00 
G01 X1.03 Y39.85 
G01 X0.93 Y39.78 
G01 X0.85 Y39.70 
G01 X0.78 Y39.60 
G01 X0.74 Y39.49 
G01 X0.71 Y39.37 
G01 X0.71 Y1.26 
G01 X0.74 Y1.14 
G01 X0.78 Y1.03 
G01 X0.85 Y0.93 
G01 X0.93 Y0.85 
G01 X1.03 Y0.78 
G01 X1.14 Y0.74 
G01 X1.26 Y0.71 
G01 X28.89 Y0.71 
G01 X29.01 Y0.74 
G01 X29.12 Y0.78 
G01 X29.22 Y0.85 
G01 X29.30 Y0.93 
G01 X29.37 Y1.03 
G01 X29.41 Y1.14 
G01 X29.44 Y1.26 
G01 X29.44 Y39.37 
G01 X29.41 Y39.49 
G01 X29.37 Y39.60 
G01 X29.30 Y39.70 
G01 X29.22 Y39.78 
G01 X29.12 Y39.85 
G01 X29.01 Y39.89 
G01 X28.89 Y39.92 
G01 X28.77 Y39.92 
G01 X1.26 Y39.92 
G00 Z2.00 
G00 Z10.00 
M05
M02
